X:1
T:Lesson 4 - Russian Dance Tune
M:C
K:A
L:1/4
vA B c d|e2 a2|f g a f|e2 c2|d d f d|c c e c|
vB B d B|A2 e2|d d f d|c c e c|B B d B|A2 A2:|]
